X:1
T: The Carnival Hornpipe
C:
R:Reel
Q: 232
K:A
M:4/4
L:1/8
|:ed|cA cf e2 ed|cA cf e2 ef|ed Bf ed Bf|eg ba gf ed|
cA cf e2 ed|cA cf e2 ((3efg) |ac d^d eE FG|A2 c2 A2:|
K:E
|:GA|BB BB Bg fg|BB BB Bg fg|ag fe dc BA|GB Ac B2 GA|
BB BB Bg fg|BB BB Bg fg|ag fe dB cd|e2 e2 e2:|
